image-filter-center-focus-weak.svg

<svg fill="currentColor" viewBox="0 0 24 24"><path d="M5 15H3v4a2 2 0 0 0 2 2h4v-2H5M5 5h4V3H5a2 2 0 0 0-2 2v4h2m14-6h-4v2h4v4h2V5a2 2 0 0 0-2-2m0 16h-4v2h4a2 2 0 0 0 2-2v-4h-2m-7-7a4 4 0 0 0-4 4 4 4 0 0 0 4 4 4 4 0 0 0 4-4 4 4 0 0 0-4-4m0 6a2 2 0 0 1-2-2 2 2 0 0 1 2-2 2 2 0 0 1 2 2 2 2 0 0 1-2 2"/></svg>

<svg  viewBox="0 0 24 24" fill="currentColor"><path  d="M5,15H3V19A2,2 0 0,0 5,21H9V19H5M5,5H9V3H5A2,2 0 0,0 3,5V9H5M19,3H15V5H19V9H21V5A2,2 0 0,0 19,3M19,19H15V21H19A2,2 0 0,0 21,19V15H19M12,8A4,4 0 0,0 8,12A4,4 0 0,0 12,16A4,4 0 0,0 16,12A4,4 0 0,0 12,8M12,14A2,2 0 0,1 10,12A2,2 0 0,1 12,10A2,2 0 0,1 14,12A2,2 0 0,1 12,14Z"/></svg>
